flags/xk.svg

<svg xmlns="http://www.w3.org/2000/svg" width="512" height="512" fill="none"><g clip-path="url(#a)"><path fill="var(--flag-palette-blue, #0052b4)" d="M0 0h512v512H0z"/><path fill="#EEE" d="m112.4 155.8 5.6 17h17.9l-14.5 10.5 5.5 17-14.5-10.5L98 200.3l5.5-17L89 172.8h18zm55.7-16.7 5.5 17h18L177 166.6l5.6 17-14.5-10.5-14.5 10.6 5.6-17-14.5-10.6h17.9zm55.7-16.7 5.5 17h17.9L232.7 150l5.5 17-14.4-10.6-14.5 10.6 5.5-17-14.5-10.6h18zm175.8 33.4-5.6 17h-17.9l14.5 10.5-5.5 17 14.5-10.5 14.4 10.5-5.5-17 14.5-10.5h-18zm-55.7-16.7-5.5 17h-18l14.6 10.5-5.6 17 14.5-10.5 14.5 10.6-5.6-17 14.5-10.6h-17.9zm-55.7-16.7-5.5 17h-17.9l14.5 10.6-5.5 17 14.4-10.6 14.5 10.6-5.5-17 14.5-10.6h-18z"/><path fill="var(--flag-palette-dark-yellow, #ffc635)" d="M300.5 267.1 256 211.5l-22.3 11.1V245l-33.4 22h-22.2v29a89 89 0 0 1 55.6 82.5H256v-22.2l22.3-22.3 22.2 22.3 22.3-22.3v-22.2l22.2-33.4z"/></g><defs><clipPath id="a"><path fill="#fff" d="M0 0h512v512H0z"/></clipPath></defs></svg>

<svg width="512" height="512" viewBox="0 0 512 512" fill="none" xmlns="http://www.w3.org/2000/svg">
<rect width="512" height="512" fill="var(--flag-palette-blue, #0052b4)"/>
<path d="M112.4 155.8L118 172.8H135.9L121.4 183.3L126.9 200.3L112.4 189.8L98 200.3L103.5 183.3L89 172.8H107L112.4 155.8ZM168.1 139.1L173.6 156.1H191.6L177 166.6L182.6 183.6L168.1 173.1L153.6 183.7L159.2 166.7L144.7 156.1H162.6L168.1 139.1ZM223.8 122.4L229.3 139.4H247.2L232.7 150L238.2 167L223.8 156.4L209.3 167L214.8 150L200.3 139.4H218.3L223.8 122.4ZM399.6 155.8L394 172.8H376.1L390.6 183.3L385.1 200.3L399.6 189.8L414 200.3L408.5 183.3L423 172.8H405L399.6 155.8ZM343.9 139.1L338.4 156.1H320.4L335 166.6L329.4 183.6L343.9 173.1L358.4 183.7L352.8 166.7L367.3 156.1H349.4L343.9 139.1ZM288.2 122.4L282.7 139.4H264.8L279.3 150L273.8 167L288.2 156.4L302.7 167L297.2 150L311.7 139.4H293.7L288.2 122.4Z" fill="var(--flag-palette-white, #eeeeee)"/>
<path d="M300.5 267.1L256 211.5L233.7 222.6V245L200.3 267H178.1V296C194.529 302.652 208.598 314.058 218.504 328.756C228.41 343.454 233.701 360.775 233.7 378.5H256V356.3L278.3 334L300.5 356.3L322.8 334V311.8L345 278.4L300.5 267.2V267.1Z" fill="var(--flag-palette-dark-yellow, #ffc635)"/>
</svg>
